public/mascots/dropout/bear-late-registration-512x512.svg

<svg xmlns="http://www.w3.org/2000/svg" width="512" height="512" viewBox="0 0 512 512"><defs><linearGradient id="b" x1="0%" x2="100%" y1="0%" y2="100%"><stop offset="0%" style="stop-color:sienna"/><stop offset="50%" style="stop-color:#8b4513"/><stop offset="100%" style="stop-color:#654321"/></linearGradient><linearGradient id="c" x1="0%" x2="0%" y1="0%" y2="100%"><stop offset="0%" style="stop-color:#8b7355"/><stop offset="50%" style="stop-color:#6b5344"/><stop offset="100%" style="stop-color:#5c4033"/></linearGradient><filter id="a" width="140%" height="140%" x="-20%" y="-20%"><feDropShadow dx="3" dy="3" flood-opacity=".2" stdDeviation="4"/></filter></defs><ellipse cx="256" cy="480" opacity=".1" rx="100" ry="20"/><g fill="url(#b)" filter="url(#a)"><circle cx="160" cy="128" r="64"/><circle cx="352" cy="128" r="64"/></g><ellipse cx="256" cy="192" fill="url(#b)" rx="128" ry="112"/><ellipse cx="256" cy="224" fill="#deb887" rx="64" ry="48"/><ellipse cx="256" cy="208" fill="#333" rx="24" ry="20"/><path fill="none" stroke="#333" stroke-width="5" d="M184 176q24-16 48 0M280 176q24-16 48 0"/><path fill="none" stroke="#654321" stroke-width="4" d="m224 88 16-24 16 24 16-24 16 24"/><path fill="url(#c)" d="M160 288q0-48 96-64 96 16 96 64 0 128-96 160-96-32-96-160"/><path stroke="#5c4033" stroke-width="6" d="M256 256v160"/><path fill="peru" d="m192 256 64 48 64-48"/><path fill="url(#c)" d="M160 320q-32 32-16 64t48 0"/><path fill="url(#c)" d="M352 320q32 32 16 64t-48 0"/><rect width="40" height="24" x="152" y="368" fill="#5c4033" rx="4"/><rect width="40" height="24" x="320" y="368" fill="#5c4033" rx="4"/><circle cx="160" cy="400" r="20" fill="#8b4513"/><circle cx="352" cy="400" r="20" fill="#8b4513"/></svg>

<svg xmlns="http://www.w3.org/2000/svg" viewBox="0 0 512 512" width="512" height="512">
  <defs>
    <linearGradient id="lrBearBrown512" x1="0%" y1="0%" x2="100%" y2="100%">
      <stop offset="0%" style="stop-color:#A0522D"/>
      <stop offset="50%" style="stop-color:#8B4513"/>
      <stop offset="100%" style="stop-color:#654321"/>
    </linearGradient>
    <linearGradient id="lrBearJacket512" x1="0%" y1="0%" x2="0%" y2="100%">
      <stop offset="0%" style="stop-color:#8B7355"/>
      <stop offset="50%" style="stop-color:#6B5344"/>
      <stop offset="100%" style="stop-color:#5C4033"/>
    </linearGradient>
    <filter id="lrShadow512" x="-20%" y="-20%" width="140%" height="140%">
      <feDropShadow dx="3" dy="3" stdDeviation="4" flood-opacity="0.2"/>
    </filter>
  </defs>
  <ellipse cx="256" cy="480" rx="100" ry="20" fill="#000" opacity="0.1"/>
  <g filter="url(#lrShadow512)">
    <circle cx="160" cy="128" r="64" fill="url(#lrBearBrown512)"/>
    <circle cx="352" cy="128" r="64" fill="url(#lrBearBrown512)"/>
  </g>
  <ellipse cx="256" cy="192" rx="128" ry="112" fill="url(#lrBearBrown512)"/>
  <ellipse cx="256" cy="224" rx="64" ry="48" fill="#DEB887"/>
  <ellipse cx="256" cy="208" rx="24" ry="20" fill="#333"/>
  <path d="M184 176 Q208 160 232 176" stroke="#333" stroke-width="5" fill="none"/>
  <path d="M280 176 Q304 160 328 176" stroke="#333" stroke-width="5" fill="none"/>
  <path d="M224 88 L240 64 L256 88 L272 64 L288 88" fill="none" stroke="#654321" stroke-width="4"/>
  <path d="M160 288 Q160 240 256 224 Q352 240 352 288 Q352 416 256 448 Q160 416 160 288Z" fill="url(#lrBearJacket512)"/>
  <line x1="256" y1="256" x2="256" y2="416" stroke="#5C4033" stroke-width="6"/>
  <path d="M192 256 L256 304 L320 256" fill="#CD853F"/>
  <path d="M160 320 Q128 352 144 384 Q160 416 192 384" fill="url(#lrBearJacket512)"/>
  <path d="M352 320 Q384 352 368 384 Q352 416 320 384" fill="url(#lrBearJacket512)"/>
  <rect x="152" y="368" width="40" height="24" fill="#5C4033" rx="4"/>
  <rect x="320" y="368" width="40" height="24" fill="#5C4033" rx="4"/>
  <circle cx="160" cy="400" r="20" fill="#8B4513"/>
  <circle cx="352" cy="400" r="20" fill="#8B4513"/>
</svg>
